public/img/clinical_notes.svg

<svg width="12" height="12" viewBox="0 0 12 12" fill="none" xmlns="http://www.w3.org/2000/svg">
<path d="M8.4 7.8C7.9 7.8 7.475 7.625 7.125 7.275C6.775 6.925 6.6 6.5 6.6 6C6.6 5.5 6.775 5.075 7.125 4.725C7.475 4.375 7.9 4.2 8.4 4.2C8.9 4.2 9.325 4.375 9.675 4.725C10.025 5.075 10.2 5.5 10.2 6C10.2 6.5 10.025 6.925 9.675 7.275C9.325 7.625 8.9 7.8 8.4 7.8ZM8.4 6.6C8.57 6.6 8.7125 6.5425 8.8275 6.4275C8.9425 6.3125 9 6.17 9 6C9 5.83 8.9425 5.6875 8.8275 5.5725C8.7125 5.4575 8.57 5.4 8.4 5.4C8.23 5.4 8.0875 5.4575 7.9725 5.5725C7.8575 5.6875 7.8 5.83 7.8 6C7.8 6.17 7.8575 6.3125 7.9725 6.4275C8.0875 6.5425 8.23 6.6 8.4 6.6ZM4.8 12V10.26C4.8 10.05 4.85 9.8525 4.95 9.6675C5.05 9.4825 5.19 9.335 5.37 9.225C5.69 9.035 6.0275 8.8775 6.3825 8.7525C6.7375 8.6275 7.1 8.535 7.47 8.475L8.4 9.6L9.33 8.475C9.7 8.535 10.06 8.6275 10.41 8.7525C10.76 8.8775 11.095 9.035 11.415 9.225C11.595 9.335 11.7375 9.4825 11.8425 9.6675C11.9475 9.8525 12 10.05 12 10.26V12H4.8ZM5.985 10.8H7.83L7.02 9.81C6.84 9.86 6.665 9.925 6.495 10.005C6.325 10.085 6.155 10.17 5.985 10.26V10.8ZM8.97 10.8H10.8V10.26C10.64 10.16 10.475 10.0725 10.305 9.9975C10.135 9.9225 9.96 9.86 9.78 9.81L8.97 10.8ZM1.2 10.8C0.87 10.8 0.5875 10.6825 0.3525 10.4475C0.1175 10.2125 0 9.93 0 9.6V1.2C0 0.87 0.1175 0.5875 0.3525 0.3525C0.5875 0.1175 0.87 0 1.2 0H9.6C9.93 0 10.2125 0.1175 10.4475 0.3525C10.6825 0.5875 10.8 0.87 10.8 1.2V4.2C10.64 4 10.465 3.81 10.275 3.63C10.085 3.45 9.86 3.33 9.6 3.27V1.2H1.2V9.6H3.69C3.66 9.71 3.6375 9.82 3.6225 9.93C3.6075 10.04 3.6 10.15 3.6 10.26V10.8H1.2ZM2.4 3.6H6.6C6.86 3.4 7.145 3.25 7.455 3.15C7.765 3.05 8.08 3 8.4 3V2.4H2.4V3.6ZM2.4 6H5.4C5.4 5.79 5.4225 5.585 5.4675 5.385C5.5125 5.185 5.575 4.99 5.655 4.8H2.4V6ZM2.4 8.4H4.47C4.58 8.31 4.6975 8.23 4.8225 8.16C4.9475 8.09 5.075 8.025 5.205 7.965V7.2H2.4V8.4ZM1.2 9.6V1.2V3.255V3V9.6Z" fill="#A3FF87"/>
</svg>

<svg xmlns="http://www.w3.org/2000/svg" width="12" height="12" fill="none"><path fill="#A3FF87" d="M8.4 7.8q-.75 0-1.275-.525A1.74 1.74 0 0 1 6.6 6q0-.75.525-1.275T8.4 4.2t1.275.525T10.2 6t-.525 1.275T8.4 7.8m0-1.2a.58.58 0 0 0 .428-.172A.58.58 0 0 0 9 6a.58.58 0 0 0-.172-.428A.58.58 0 0 0 8.4 5.4a.58.58 0 0 0-.428.172A.58.58 0 0 0 7.8 6q0 .255.173.428A.58.58 0 0 0 8.4 6.6M4.8 12v-1.74q0-.315.15-.592.15-.278.42-.443a5.7 5.7 0 0 1 1.013-.473 6.3 6.3 0 0 1 1.087-.277L8.4 9.6l.93-1.125q.555.09 1.08.277t1.005.473q.27.165.428.443.156.276.157.592V12zm1.185-1.2H7.83l-.81-.99q-.27.075-.525.195t-.51.255zm2.985 0h1.83v-.54a4 4 0 0 0-1.02-.45zm-7.77 0q-.495 0-.847-.353A1.16 1.16 0 0 1 0 9.6V1.2Q0 .705.353.353.704 0 1.2 0h8.4q.495 0 .848.353.351.352.352.847v3q-.24-.3-.525-.57T9.6 3.27V1.2H1.2v8.4h2.49a2.6 2.6 0 0 0-.09.66v.54zm1.2-7.2h4.2q.39-.3.855-.45T8.4 3v-.6h-6zm0 2.4h3q0-.315.067-.615.069-.3.188-.585H2.4zm0 2.4h2.07q.165-.135.353-.24.186-.105.382-.195V7.2H2.4zM1.2 9.6V1.2v2.055V3z"/></svg>
